src/assets/icons/google.svg

<svg width="24" height="25" fill="none" xmlns="http://www.w3.org/2000/svg"><path fill-rule="evenodd" clip-rule="evenodd" d="M12 .375c-6.628 0-12 5.373-12 12s5.372 12 12 12c6.627 0 12-5.373 12-12s-5.373-12-12-12Zm.14 19.018c-3.868 0-7-3.14-7-7.018 0-3.878 3.132-7.018 7-7.018 1.89 0 3.47.697 4.682 1.829l-1.974 1.978V9.16c-.735-.702-1.667-1.062-2.708-1.062-2.31 0-4.187 1.956-4.187 4.273 0 2.315 1.877 4.277 4.187 4.277 2.096 0 3.522-1.202 3.816-2.852H12.14v-2.737h6.585c.088.47.135.96.135 1.474 0 4.01-2.677 6.86-6.72 6.86Z" fill="#303030"/></svg>

<svg width="24" height="25" viewBox="0 0 24 25" fill="none" xmlns="http://www.w3.org/2000/svg">
<path fill-rule="evenodd" clip-rule="evenodd" d="M12 0.375C5.372 0.375 0 5.748 0 12.375C0 19.002 5.372 24.375 12 24.375C18.627 24.375 24 19.002 24 12.375C24 5.748 18.627 0.375 12 0.375ZM12.14 19.393C8.272 19.393 5.14 16.253 5.14 12.375C5.14 8.497 8.272 5.357 12.14 5.357C14.03 5.357 15.61 6.054 16.822 7.186L14.848 9.164V9.16C14.113 8.458 13.181 8.098 12.14 8.098C9.83 8.098 7.953 10.054 7.953 12.371C7.953 14.686 9.83 16.648 12.14 16.648C14.236 16.648 15.662 15.446 15.956 13.796H12.14V11.059H18.725C18.813 11.529 18.86 12.019 18.86 12.533C18.86 16.543 16.183 19.393 12.14 19.393Z" fill="#303030"/>
</svg>
